X:1
T:Title
%%score 1 2
L:1/8
Q:1/4=105
M:4/4
K:E
V:1 treble nm="Violin, Soprano"
V:2 bass nm="Choir Pad, Bass"
V:1
 EF G2- GA B2 | B2 c2 d2 e2 | z E G2- GA B2 | B2 A2 G2 F2 | z GGA B2 A2 | GF F2- FE E2 | %6
w: By~Johann~Schop~(1590\-1664),~harm~J.~S.~Bach * * * * *||||||
 EF G2- GA B2 | B2 c2 d2 e2 | z E G2- GA B2 | B2 A2 G2 F2 | z GGA B2 A2 | GF F2- FE E2 | %12
w: ||||||
 B2 F2 G2 A2 | A2 G2- GF F2 | z B c2- cd e2 | G2 F2- FE E2- | E6 z2 |] %17
w: |||||
V:2
 E,,2 E,2 F,2 G,2 | E,2 A,2 F,2 E,2- | E,2 E,2 F,2 G,2 | E,2 D,2 E,2 B,,2 | E,D, C,2 G,,2 F,,2 | %5
 E,,2 B,,4 E,2 | E,,2 E,2 F,2 G,2 | E,2 A,2 F,2 E,2- | E,2 E,2 F,2 G,2 | E,2 D,2 E,2 B,,2 | %10
 E,D, C,2 G,,2 F,,2 | E,,2 B,,4 E,2 | E,,2 B,,2 G,,2 F,,2- | F,,2 C,4 F,2 | G,2 A,2 F,2 G,2 | %15
 E,2 B,,4 E,2- | E,6 z2 |] %17

